X: 133
T: Nocturne 2.	 Op. 15
C: Fryderyk Chopin
%%abc-version 2.0
%%abcx-abcm2ps-target-version 5.9.1 (29 Sep 2008)
%%abc-creator hum2abc beta
%%abcx-conversion-date 2021/10/03 11:23:47
%%abc-edited-by Jędrzej Mróz
%%abc-edited-by Wojciech Jakubiak-Danek
%%abc-edited-by Wojciech Jakubiak-Danek
%%abcx-initial-encoding-date 2018-07-31
%%humdrum-veritas 3357313568
%%humdrum-veritas-data 1194727406
%%linebreak <none>
%%barnumbers 0
L: 1/16
M: 2/4
N: Derived from 015-1b-Sm-002.krn
P: Trois Nocturnes Pour Le Piano
Q: "Larghetto. [quarter] = 40." 1/4=40
%%staves {1 2}
V: 1 clef=treble
V: 2 clef=bass
K: F#
[V:1] A3/B/ [I:setbarnb 1]| 
[V:2] z2 | 
[V:1] AGEC .C2.C2 | 
[V:2] C,,2C,2[B,2E,2]C,2 | 
[V:1] C2-C/F/A/d/ c2 A3/B/ | 
[V:2] F,,2C,2[A,2F,2]C,2 | 
[V:1] (5:4:5A[AG]E=DC .C2.C2 | 
[V:2] C,,2C,2[B,2E,2]C,2 | 
[V:1] C2-(5:4:5C/F/A/F/d/ !wedge!c2 B3/c/ | 
[V:2] F,,2C,2[C2A,2F,2] z2 | 
[V:1] BA^^FD .D2.D2 | 
[V:2] D,,2D,2[C2^^F,2]D,2 | 
[V:1] !wedge!D2 ^f2-fdFG | 
[V:2] .G,,2[B,2G,2D,2] .B,,2[D2-G,2-D,2] | 
[V:1] .A2 B>A !trill!G2{/^^FG}Az/G/ | 
[V:2] [D2G,2]D2^B,2C3/=B,/ & x2F,4E,2 | 
[V:1] F2E>D !wedge![C2G,2] {/A,CF} A3/B/ & x6A,2 | 
[V:2] [A,2D,2][=A,2^B,,2][E,2C,2]!arpeggio![F,2C,2F,,2] & F,4x4 | 
[V:1] {/B,E} AGEC .C2.C2 & B,2<x2x4 | 
[V:2] C,,2C,2[B,2E,2]C,2 | 
[V:1] C2-C/F/A/d/ !wedge!c2 (7:4:7A/B/A/^^G/A/c/^B/ | 
[V:2] F,,2C,2[A,2F,2]C,2 | 
[V:1] (15:8:30=B/A/B/A/=A/G/A/G/A/G/=G/F/G/F/G/F/=F/=E/^E/^F/E/D/E/F/A/G/E/F/D/G/ | 
[V:2] x2=D,4x2 & F,,2=D,2[B,2G,2]C,2 | 
[V:1] {/G} C2-(5:4:6C/F/A/.f/z//d// c2 (3:2:6^^G/A/B/A/=e/d/ | 
[V:2] F,,2C,2[C2A,2F,2] z2 | 
[V:1] (5:4:5.=d.c.A.^^F.A =E>^D (3:2:6D/^^C/D/^F/E/D/ | 
[V:2] D,,2D,2[C2^^F,2]D,2 | 
[V:1] (3.D.f.d !accent!f'2-f'/d'/b/g/f/d/(3B/F/G/ | 
[V:2] G,,2[B,2G,2D,2][D2B,2G,2F,2][F2D2B,2G,2] | 
[V:1] A2!accent!B>A !trill!G2{/^^FG}Az/G/ | 
[V:2] x2 D2^B,2Cz/=B,/ & C,8 | 
[V:1] F4z2 !accent!E3/F/ | 
[V:2] .F,,2.[C2A,2].[A,2F,2] z2 | 
[V:1] G2c>d.e2.e2 | 
[V:2] C,,2 [E2C2G,2][C2G,2E,2][E2C2G,2] | 
[V:1] !accent!e4{/=e2d2=d2c2=c2B2A2}=A4- | 
[V:2] C,2[F2C2=A,2][C2A,2F,2][F2C2A,2] | 
[V:1] =A2c>e (3.f2.f2.f2 | 
[V:2] [C,2C,,2] [F2C2=A,2][C2A,2F,2][=A2C2A,2] | 
[V:1] !accent!f4{/=f2=e2d2=d2c2=c2B2A2}=A4- | 
[V:2] [=C,2=C,,2] [F2=D2=A,2][D2A,2F,2][F2D2A,2] | 
[V:1] =A2d>e f2f3/f/ | 
[V:2] [B,,2B,,,2] [F2^D2=A,2][D2A,2F,2][^^G2^^G,2] | 
[V:1] f2>e2 (3:2:6ded^^cde | 
[V:2] [^A,,2^A,,,2] !arpeggio![^A2^C2^A,2E,2] [A,,2A,,,2] !arpeggio![^^G2D2B,2E,2] | 
[V:1] d2>^^c2 (3B^cB (5:4:5A/B/d/c/B/ | 
[V:2] [A,,2A,,,2] !arpeggio![A2^^C2E,2] [A,,2A,,,2] !arpeggio![F2^^G,2D,2] | 
[V:1] !accent!B2A2- (3:2:6A.A.A.A.A.B & x4E4 | 
[V:2] (3A,,, ^^C,A,(3E,^^CA,z4 | 
[V:1] (5:4:4e4d c4d & (5:4:8x GB2 x x GB2 x | 
[V:2] .C,,2[B,4G,4C,4].G,,2 | 
[V:1] (5:4:4e4f g4a & (5:4:8x Bc2 x x Bc2 x | 
[V:2] .C,,2[B,4G,4C,4].G,,2 | 
[V:1] (5:4:4g4e f4d & (5:4:8x Bc2 x x ^^G^B2 x | 
[V:2] x2 [B,2G,2][^B,2^^G,2] x2 & .C,,2C,4.C,,2 | 
[V:1] !accent!e8 & (5:4:5x2 =A2G2 x x2 | 
[V:2] [C6C,6].G,,2 & G,2=A,2G,2 x2 | 
[V:1] (5:4:4e4d c4d & (5:4:8x GB2 x x GB2 x | 
[V:2] .C,,2[B,4G,4C,4].G,,2 | 
[V:1] (5:4:4e4f g4a & (5:4:8x Bc2 x x Bc2 x | 
[V:2] .C,,2[B,4G,4C,4].G,,2 | 
[V:1] (5:4:4g4e f4d & (5:4:8x Bc2 x x ^^G^B2 x | 
[V:2] .C,,2 [B,2G,2C,2][^B,2^^G,2C,2] C,,2 | 
[V:1] (5:4:4e4e ^^f4f & (5:4:8x GA2 x x A=e2 x | 
[V:2] [C2G,2C,2].C,,2 [=E2A,2^^F,2][C,2C,,2] | 
[V:1] g2>f2 e3f & x> B=e x x> GB x | 
[V:2] !accent!=D,8 & D,,2[B,4G,4E,4][B,2G,2E,2] | 
[V:1] g2>=a2 b3c' & x> B=e x x> eg x | 
[V:2] !accent!=D,8 & =D,,2[B,4G,4E,4][B,2G,2E,2] | 
[V:1] b2>g2 =a3f & x> =eg x x> =cf x | 
[V:2] =D,6D,,2 & =D,,2 [B,2G,2][=C2F,2] x2 | 
[V:1] !accent!g8 & G>B (3=e=ce B>G (3eBe | 
[V:2] !accent!B,2=C2B,2G,2 & [G,8=E,8=D,8] | 
[V:1] g2>f2 e3f & x> B=e x x> GB x | 
[V:2] !accent!=D,8 & =D,,2[B,4G,4E,4][B,2G,2E,2] | 
[V:1] g2>=a2 b3c' & x> B=e x x> eg x | 
[V:2] [=D,2=D,,2][B,4G,4E,4][B,2G,2] | 
[V:1] =d'2>c'2 d'3c' & x> ^eg x x> f=a x | 
[V:2] [C,2C,,2][E2B,2G,2] [C,2E,,2][F2=A,2] | 
[V:1] =d'2>c'2 =e'3d' & x> eg x x> f=a x | 
[V:2] [C,2C,,2][^E2C2G,2] [C,2E,,2][=D2=A,2F,2] | 
[V:1] =d'2>c'2 c'3b & x> ^eg x x> =df x | 
[V:2] C,4x4 & [C,2C,,2][C2^E,2] [G,,2G,,,2][B,2F,2]- | 
[V:1] =a2>g2 g3f & x> B=d x x> Bd x | 
[V:2] [B,2F,2][B,4F,4]x2 & x4B,,4 | 
[V:1] f2>e2 =d3c & x> GB x x> x x x | 
[V:2] C,,2 [G,2C,2]!accent!=D2 z2 | 
[V:1] =d2>c2 d3c & =D>E (3GCc D>F (3ACc | 
[V:2] z4!arpeggio![A,2C,2F,,2] z2 | 
[V:1] =d2>c2[K:clef=bass] z/ E,/ G,C,C & =D>E (3GCc z x C,2 | 
[V:2] !arpeggio![E,2G,,2C,,2] z2 [=D2=D,2] z2 | 
[V:1] =D2>C2 D3C & =D,>E, (3G,C,C D,>F, (3A,C,C | 
[V:2] z4[F,,4F,,,4] | 
[V:1] =D2>C2 D3C & =D,>E, (3G,C,C D,>E, (3G,C,C | 
[V:2] [C,,4C,,,4]z4 | 
[V:1] =D2>C2 !fermata!z2[K:clef=treble] !accent!A3/B/ & =D,>E, (3G,C,Cx4 | 
[V:2] z8 | 
[V:1] AGE>C .C2.C2 | 
[V:2] C,,2C,2[A,2E,2]C,2 | 
[V:1] C2-C/F/A/d/ c2 (7:4:7A/B/A/^^G/A/c/^B/ | 
[V:2] F,,2C,2[A,2F,2]C,2 | 
[V:1] (5:4:40=B//^g//B//A//^^f//A//=A//^f//A//G//e//G//=G//=e//G//F//d//F//^E//=d//c//=c//B//^A//=A//^G//=G//F//E//F//E//D//E//F//^A//G//E//F//D//G// | 
[V:2] x2=D,4x2 & F,,2=D,2[B,2G,2]C,2 | 
[V:1] {/G} C2-(7:4:8C/F/A/c/A/.f/z//d// c2 B3/c/ | 
[V:2] F,,2C,2[C2A,2F,2] z2 | 
[V:1] BA^^F>D .D2.D2 | 
[V:2] D,,2D,2[C2^^F,2]D,2 | 
[V:1] (3.D.f.d f'2-(3:2:12f'/a'/g'/f'/d'/b/a/g/f/d/F/G/ | 
[V:2] [G,,2G,,,2][B,2G,2F,2D,2] [B,,2B,,,2][D2-B,2G,2F,2] | 
[V:1] !wedge!A2 B>A !trill!G2{/^^FG}A3/G/ | 
[V:2] D2D2^B,2C3/=B,/ & x2F,4[C3/E,3/]=B,/ | 
[V:1] d>c (3cBA {/^^FG} !trill!G2{/FG}Az/G/ & F6E2 | 
[V:2] A,2D2^B,2C3/=B,/ & C,6-C,3/^^C,/ | 
[V:1] (3Ffe (5:4:5g/.=g/.f/.=f/.=e/ (3:2:12.d/.B/.=d/.^A/.c/.=A/ .=c/.G/!accent!B/- B/^A/G/ & F4-F3E | 
[V:2] x2D4=D-(3D/C/B,/ & [A,2D,2].[=A,2^B,,2][G,4C,4] | 
[V:1] .F2 !accent!d''2-d''(3c''/a'/f'/ b'(3a'/f'/c'/ | 
[V:2] .F,,,2 (3[A,C,][A,C,][A,C,] .[C2A,2F,2].[A,2F,2C,2] | 
[V:1] g'(3f'/c'/a/ d'(3c'/a/f/ b(3a/f/c/ g(3f/c/A/ | 
[V:2] F,,2 [A,F,C,](3.[A,/F,/C,/].[A,/F,/C,/].[A,/F,/C,/] .[C2A,2F,2].[A,2F,2C,2] | 
[V:1] (3:2:24d/c/A/F/B/A/ F/C/G/F/C/A,/ D/C/A,/F,/C,/A,/ D/C/A,/F,/C,/A,/ | 
[V:2] .!arpeggio![A,2C,2F,,2] z2 z2 C,,2 | 
[V:1] (3:2:24D/C/A,/F,/C,/A,/ D/C/A,/F,/C,/A,/ D/C/A,/F,/C,/A,/ D/C/A,/F,/C,/C/ | 
[V:2] [F,,6=F,,,6]C,,2 | 
[V:1] !fermata!A8 |]  
[V:2] !fermata!F,,,8 |]
